X:297
T: ICH BIN SCHON OFT GESTIEGEN UEBER MANCHEN HOHEN SCHROTT
N: Z0295
O: Europa, Mitteleuropa, Deutschland, Kuhlaendchen
R: Lyrisches Lied, Romanze, verlassene Liebe
M: 4/4
L: 1/8
K: G
B2 | d2d2d2c2 | B4A2
BB | c2B2A2B2 | c4z2
B2 | d2d2BcdB | c2A2G4
c2B2G2=F2
D2^ffG2A2 | c2A2B2BG | =F4z2
Ac | B2A2G2

